src/icons/svg/sitemsg.svg

<?xml version="1.0" standalone="no"?><!DOCTYPE svg PUBLIC "-//W3C//DTD SVG 1.1//EN" "http://www.w3.org/Graphics/SVG/1.1/DTD/svg11.dtd"><svg t="1645509489750" class="icon" viewBox="0 0 1024 1024" version="1.1" xmlns="http://www.w3.org/2000/svg" p-id="1546" xmlns:xlink="http://www.w3.org/1999/xlink" width="200" height="200"><defs><style type="text/css"></style></defs><path d="M1021.5936 836.5056 702.3616 480.9216 1021.0304 185.0368C1022.5152 189.3376 1023.8976 193.6896 1023.8976 198.3488L1023.8976 825.6C1023.8976 829.4912 1022.5664 832.9216 1021.5936 836.5056ZM39.168 155.1872C42.0864 154.6752 44.6464 153.5488 47.5648 153.5488L976.5376 153.5488C979.456 153.5488 982.0672 154.6752 984.9344 155.1872L512.0512 572.416 39.168 155.1872ZM2.4576 836.5568C1.536 832.9728 0.1024 829.5424 0.1024 825.6L0.1024 198.3488C0.1024 193.5872 1.5872 189.2864 3.0208 184.9856L321.8432 480.9216 2.4576 836.5568ZM496.8448 618.8032C501.248 622.336 506.6752 624.0256 512.0512 624.0256 517.4784 624.0256 522.8032 622.336 527.1552 618.8032L665.7536 509.7472 988.1088 868.1984C984.32 869.12 980.6336 870.4512 976.5376 870.4512L47.5648 870.4512C43.52 870.4512 39.8336 869.12 36.096 868.1984L358.4 509.7472 496.8448 618.8032Z" p-id="1547"></path></svg>

<svg class="icon" viewBox="0 0 1024 1024" xmlns="http://www.w3.org/2000/svg" width="200" height="200"><defs><style/></defs><path d="M1021.594 836.506L702.362 480.922l318.668-295.885c1.485 4.3 2.868 8.653 2.868 13.312V825.6c0 3.891-1.332 7.322-2.304 10.906zM39.168 155.187c2.918-.512 5.478-1.638 8.397-1.638h928.973c2.918 0 5.53 1.126 8.396 1.638L512.051 572.416 39.168 155.187zm-36.71 681.37C1.536 832.973.102 829.542.102 825.6V198.349c0-4.762 1.485-9.063 2.919-13.363l318.822 295.936L2.458 836.557zm494.387-217.754c4.403 3.533 9.83 5.223 15.206 5.223 5.427 0 10.752-1.69 15.104-5.223l138.599-109.056 322.355 358.451c-3.789.922-7.475 2.253-11.571 2.253H47.565c-4.045 0-7.731-1.331-11.469-2.253L358.4 509.748l138.445 109.055z"/></svg>
